X:2232
T:A beautiful fair Maid of Honiton Town 
C:Traditional
O:Isle of Man
Z:Clague collection
B:Kiaull Vannin #232 
L:1/4
M:4/4 
Q:75 
K:G 
D|G2A B|c2 dd|cB G G|G3d|g2 fg|fd e c|AA B c|d3 d| 
g2d g|f de c|A Ag e|(dcB) G|G2 A B|c2 dd|c B GG|G3|| 

